X:310
T:
R:polska
C:Medbom
S:Av Medbom i Väte, uppt. efter klockaren O. Laugren i Alva.
O:Gotland, Alva
M:3/4
L:1/16
K:F
AB|c2AF d2BG c2AF|fgag f2c2A2F2|EGcG EGcG [CE]3g|gage fafd [ce]3g|
gage fafd egec|=BABd [G,Ec]4 [CE]2::ef|g2ec a2fd g2ec|
egag fedc BAGF|a2F2 g2E2 f2D2|gfed d4 c2 z2|cdc2 BABc dcBA|
BcB2 BAGF FEDC|B,2d2 A,2c2 G,2B2|AGFE [CE]4 F2:|

